src/data/eyes/1f616.svg

<svg xmlns="http://www.w3.org/2000/svg" viewBox="0 0 36 36"><path d="M15.707 17.293C12.452 14.038 7.221 14 7 14a1.001 1.001 0 0 0-.001 2c.026 0 1.558.016 3.361.536-.221.261-.36.595-.36.964 0 .123.019.241.047.356-2.716.918-4.533 2.258-4.647 2.344a.999.999 0 1 0 1.2 1.6c.037-.028 3.787-2.8 8.4-2.8a1 1 0 0 0 .707-1.707zM30.6 20.2c-.114-.086-1.931-1.426-4.646-2.344.026-.115.046-.233.046-.356 0-.369-.139-.703-.359-.964A13.866 13.866 0 0 1 29.002 16 1 1 0 0 0 29 14c-.221 0-5.451.038-8.707 3.293A1 1 0 0 0 21 19c4.59 0 8.363 2.772 8.401 2.801a1.003 1.003 0 0 0 1.4-.202A1 1 0 0 0 30.6 20.2zM30 13c-.184 0-4.537-.05-7.8-4.4a1 1 0 1 1 1.599-1.2c2.641 3.521 6.061 3.599 6.206 3.6.55.006.994.456.991 1.005A.996.996 0 0 1 30 13ZM6 13a1 1 0 0 1-.004-2c.156-.002 3.569-.086 6.205-3.6a1 1 0 0 1 1.6 1.2C10.538 12.95 6.184 13 6 13Z" style="fill:#664500;fill-opacity:1"/></svg>

<?xml version="1.0" encoding="UTF-8" standalone="no"?>
<svg
   xmlns:dc="http://purl.org/dc/elements/1.1/"
   xmlns:cc="http://creativecommons.org/ns#"
   xmlns:rdf="http://www.w3.org/1999/02/22-rdf-syntax-ns#"
   xmlns:svg="http://www.w3.org/2000/svg"
   xmlns="http://www.w3.org/2000/svg"
   xmlns:sodipodi="http://sodipodi.sourceforge.net/DTD/sodipodi-0.dtd"
   xmlns:inkscape="http://www.inkscape.org/namespaces/inkscape"
   viewBox="0 0 36 36"
   version="1.1"
   id="svg6"
   sodipodi:docname="1f616.svg"
   inkscape:version="1.0.1 (3bc2e813f5, 2020-09-07)">
  <metadata
     id="metadata12">
    <rdf:RDF>
      <cc:Work
         rdf:about="">
        <dc:format>image/svg+xml</dc:format>
        <dc:type
           rdf:resource="http://purl.org/dc/dcmitype/StillImage" />
        <dc:title></dc:title>
      </cc:Work>
    </rdf:RDF>
  </metadata>
  <defs
     id="defs10" />
  <sodipodi:namedview
     pagecolor="#ffffff"
     bordercolor="#666666"
     borderopacity="1"
     objecttolerance="10"
     gridtolerance="10"
     guidetolerance="10"
     inkscape:pageopacity="0"
     inkscape:pageshadow="2"
     inkscape:window-width="1920"
     inkscape:window-height="1053"
     id="namedview8"
     showgrid="false"
     inkscape:zoom="23.305556"
     inkscape:cx="18"
     inkscape:cy="18"
     inkscape:window-x="0"
     inkscape:window-y="27"
     inkscape:window-maximized="1"
     inkscape:current-layer="svg6" />
  <path
     d="M 15.707,17.293 C 12.452,14.038 7.221,14 7,14 6.448,14 6.001,14.447 6.001,14.998 6,15.55 6.447,15.998 6.999,16 7.025,16 8.557,16.016 10.36,16.536 10.139,16.797 10,17.131 10,17.5 c 0,0.123 0.019,0.241 0.047,0.356 C 7.331,18.774 5.514,20.114 5.4,20.2 4.958,20.531 4.869,21.158 5.2,21.599 5.396,21.862 5.697,22 6.001,22 6.209,22 6.42,21.935 6.6,21.8 6.637,21.772 10.387,19 15,19 c 0.404,0 0.769,-0.243 0.924,-0.617 0.155,-0.374 0.069,-0.804 -0.217,-1.09 z"
     id="path843"
     style="fill:#664500;fill-opacity:1" />
  <path
     d="M 30.6,20.2 C 30.486,20.114 28.669,18.774 25.954,17.856 25.98,17.741 26,17.623 26,17.5 26,17.131 25.861,16.797 25.641,16.536 27.443,16.016 28.975,16 29.002,16 29.553,15.998 30,15.55 29.999,14.998 29.998,14.447 29.552,14 29,14 c -0.221,0 -5.451,0.038 -8.707,3.293 -0.286,0.286 -0.372,0.716 -0.217,1.09 C 20.23,18.757 20.596,19 21,19 c 4.59,0 8.363,2.772 8.401,2.801 0.18,0.134 0.39,0.198 0.598,0.198 0.305,0 0.605,-0.139 0.802,-0.4 0.33,-0.443 0.24,-1.068 -0.201,-1.399 z"
     id="path841"
     style="fill:#664500;fill-opacity:1" />
  <path
     d="m 30,13 c -0.184,0 -4.537,-0.05 -7.8,-4.4 -0.332,-0.442 -0.242,-1.069 0.2,-1.4 0.441,-0.333 1.067,-0.242 1.399,0.2 2.641,3.521 6.061,3.599 6.206,3.6 0.55,0.006 0.994,0.456 0.991,1.005 C 30.994,12.556 30.55,13 30,13 Z"
     id="path839"
     style="fill:#664500;fill-opacity:1" />
  <path
     d="m 6,13 c -0.552,0 -1,-0.448 -1,-1 0,-0.551 0.445,-0.998 0.996,-1 0.156,-0.002 3.569,-0.086 6.205,-3.6 0.331,-0.44 0.957,-0.532 1.4,-0.2 0.442,0.331 0.531,0.958 0.2,1.4 C 10.538,12.95 6.184,13 6,13 Z"
     id="path4"
     style="fill:#664500;fill-opacity:1" />
</svg>
